X:410
T:Reel 410
M:4/4
K:Amaj
L:1/8
AF|EA,CA, G,A,B,D|CA,CE A2GF|EA,CA, B,A,G,E,|CA,B,G, A,2:|E2|A2AF GABG|A2AE FGEG|AGAF GABG|cAFG A2CE|A2AF GABG|A2AF B2BG|AGAF GFGE|FAGB AFED|
